material/.icons/material/cloud-check.svg

<svg xmlns="http://www.w3.org/2000/svg" viewBox="0 0 24 24"><path d="M10 17l-3.5-3.5 1.41-1.42L10 14.17 15.18 9l1.41 1.41m2.76-.38A7.49 7.49 0 0012 4C9.11 4 6.6 5.64 5.35 8.03A6.004 6.004 0 000 14a6 6 0 006 6h13a5 5 0 005-5c0-2.64-2.05-4.78-4.65-4.97z"/></svg>

<?xml version="1.0" encoding="UTF-8"?><!DOCTYPE svg PUBLIC "-//W3C//DTD SVG 1.1//EN" "http://www.w3.org/Graphics/SVG/1.1/DTD/svg11.dtd"><svg xmlns="http://www.w3.org/2000/svg" xmlns:xlink="http://www.w3.org/1999/xlink" version="1.1" id="mdi-cloud-check" width="24" height="24" viewBox="0 0 24 24"><path d="M10,17L6.5,13.5L7.91,12.08L10,14.17L15.18,9L16.59,10.41M19.35,10.03C18.67,6.59 15.64,4 12,4C9.11,4 6.6,5.64 5.35,8.03C2.34,8.36 0,10.9 0,14A6,6 0 0,0 6,20H19A5,5 0 0,0 24,15C24,12.36 21.95,10.22 19.35,10.03Z" /></svg>
